img/in.svg

<svg height="448" viewBox="0 0 449 448" width="449" xmlns="http://www.w3.org/2000/svg"><path d="m100.3 448h-92.9v-299.1h92.9zm-46.5-339.9c-29.7 0-53.8-24.6-53.8-54.3s24.1-53.8 53.8-53.8 53.8 24.1 53.8 53.8-24.1 54.3-53.8 54.3zm394.2 339.9h-92.7v-145.6c0-34.7-.7-79.2-48.3-79.2-48.3 0-55.7 37.7-55.7 76.7v148.1h-92.8v-299.1h89.1v40.8h1.3c12.4-23.5 42.7-48.3 87.9-48.3 94 0 111.3 61.9 111.3 142.3v164.3z" fill="#fff"/></svg>

<?xml version="1.0" encoding="UTF-8"?>
<svg width="449px" height="448px" viewBox="0 0 449 448" version="1.1" xmlns="http://www.w3.org/2000/svg" xmlns:xlink="http://www.w3.org/1999/xlink">
    <!-- Generator: Sketch 48.2 (47327) - http://www.bohemiancoding.com/sketch -->
    <title>Shape</title>
    <desc>Created with Sketch.</desc>
    <defs></defs>
    <g id="Page-1" stroke="none" stroke-width="1" fill="none" fill-rule="evenodd">
        <g id="linkedin-in" fill="#FFFFFF" fill-rule="nonzero">
            <path d="M100.3,448 L7.4,448 L7.4,148.9 L100.3,148.9 L100.3,448 Z M53.8,108.1 C24.1,108.1 0,83.5 0,53.8 C0,24.1 24.1,0 53.8,0 C83.5,0 107.6,24.1 107.6,53.8 C107.6,83.5 83.5,108.1 53.8,108.1 Z M448,448 L355.3,448 L355.3,302.4 C355.3,267.7 354.6,223.2 307,223.2 C258.7,223.2 251.3,260.9 251.3,299.9 L251.3,448 L158.5,448 L158.5,148.9 L247.6,148.9 L247.6,189.7 L248.9,189.7 C261.3,166.2 291.6,141.4 336.8,141.4 C430.8,141.4 448.1,203.3 448.1,283.7 L448.1,448 L448,448 Z" id="Shape"></path>
        </g>
    </g>
</svg>
